!!!COM: Louise Reichardt
!!!CNT: Deutsch
!!!TXO: Deutsch
!!!OTL: Ein recht Gemu
!!!LYR: von Arnim
!!!OPR: 
!!!OPS: No opus information available
!!!ONM: No. 9
!!!ENC: Ben Fuhrman
!!!YOR: Louise Reichardt: Songs
!!!YOR: New York, Da Capo Press, 1981
!!!ODT: 1800 - 1826
!!NB: Only vocal melody encoded.
!!NB: First instance of melodic material only encoded.
!!created: 2/17/10 3:52PM
!!proofed and posted: 2/17/10 3:53PM
**kern	**silbe
*clef G2	*
*k[b-]	*
*M4/4	*
*MM[Lebha2ft]	*
8r	.
{8a	{Ein
8a	recht
8b-	Ge-
=1	=1
4.cc	mu2th
8cc	springst
8cc	mit
8cc	den
8cc	Nach-
8ff	-ti-
=2	=2
4ee	-gal-
4b-}	-len}
8r	.
{8b-	{auf
8a	man-
8b-	-che
=3	=3
4.cc	Blu2th'
8cc	und
8cc	freu-
8cc	-et
8cc	sich
8ff	an
=4	=4
4ee	al-
4b-}	-len;}
8r	.
{8b-	{von
8b-	ei-
8a	-nem
=5	=5
4.a	Zweig
8a	will
8dd	man-
8ff	-che
8ee	ein-
8dd	-zeln
=6	=6
4dd	schal-
4cc#}	-len,}
8r	.
{8cc#	{nicht
8cc#	all
8cc#	zu
=7	=7
4dd	gleich
4dd	wie
8dd	Saat
8dd	der
8b	Mens-
8g	-chen
=8	=8
(4cc	wal-
8cc	|
8e)	|
8f#}	-len.}
8r	.
4r	.
==	==
*-	*-
